; generated by Slic3r 1.3.0-dev on 2018-11-22 at 00:09:22

; Print Config Notes: 
; Режим печати материалом Watson (Bestfilament) с диаметром сопла 0,5 мм;
; Применяется для печати упругих моделей  средних и больших размеров с небольшим внутренним заполнением; 
; Высота слоя - 0.2 мм;  
; Заполнение - 15%;
; Скорость печати периметров  55 мм/сек;
; Температура экструзии/подогрева стола - 245°/95°.
; 
; external perimeters extrusion width = 0.50mm (2.51mm^3/s)
; perimeters extrusion width = 0.50mm (4.57mm^3/s)
; infill extrusion width = 0.50mm (5.03mm^3/s)
; solid infill extrusion width = 0.50mm (3.27mm^3/s)
; top infill extrusion width = 0.50mm (1.96mm^3/s)
; support material extrusion width = 0.50mm (5.03mm^3/s)

M106 S0
M104 S255
M140 S95
M190 S95
M109 S255
G28
G1 Y35 X0 F10000
G92 Y0
G21
G90
M82


; Filament gcode

G21 ; set units to millimeters
G90 ; use absolute coordinates
M82 ; use absolute distances for extrusion
G92 E0
G1 E-3.00000 F1800.00000
G92 E0
G1 Z1.500 F9000.000
G1 X68.180 Y93.907 F9000.000
G1 Z0.200 F9000.000
G1 E3.00000 F1800.00000
M201 X300 Y300
M204 P300 T300
G1 F742.5
G1 X68.452 Y93.785 E3.01131
G1 X68.718 Y93.750 E3.02151
G1 X231.359 Y93.753 E9.20291
G1 X231.662 Y93.824 E9.21472
G1 X231.826 Y93.911 E9.22181
G1 X231.970 Y94.030 E9.22889
G1 X232.089 Y94.174 E9.23597
G1 X232.216 Y94.452 E9.24759
G1 X232.247 Y94.644 E9.25498
G1 X232.250 Y122.286 E10.30557
G1 X232.230 Y122.488 E10.31327
G1 X232.123 Y122.770 E10.32474
G1 X231.967 Y122.973 E10.33447
G1 X231.719 Y123.151 E10.34609
G1 X231.426 Y123.240 E10.35772
G1 X225.685 Y123.250 E10.57592
G1 X225.330 Y123.297 E10.58954
G1 X225.063 Y123.397 E10.60037
G1 X224.895 Y123.494 E10.60774
G1 X224.741 Y123.612 E10.61512
G1 X224.546 Y123.820 E10.62595
G1 X224.361 Y124.142 E10.64006
G1 X224.278 Y124.414 E10.65088
G1 X224.253 Y124.607 E10.65826
G1 X224.250 Y174.306 E12.54716
G1 X224.262 Y174.492 E12.55423
G1 X224.326 Y174.765 E12.56489
G1 X224.442 Y175.021 E12.57556
G1 X224.552 Y175.186 E12.58309
G1 X224.741 Y175.388 E12.59361
G1 X224.895 Y175.506 E12.60098
G1 X225.063 Y175.603 E12.60836
G1 X225.330 Y175.703 E12.61919
G1 X225.685 Y175.750 E12.63281
G1 X231.430 Y175.760 E12.85117
G1 X231.714 Y175.847 E12.86244
G1 X231.931 Y175.992 E12.87238
G1 X232.119 Y176.222 E12.88364
G1 X232.215 Y176.456 E12.89326
G1 X232.250 Y176.718 E12.90331
G1 X232.250 Y205.282 E13.98891
G1 X232.215 Y205.544 E13.99896
G1 X232.119 Y205.777 E14.00854
G1 X232.015 Y205.922 E14.01531
G1 X231.820 Y206.093 E14.02520
G1 X231.723 Y206.149 E14.02946
G1 X231.548 Y206.215 E14.03654
G1 X231.282 Y206.250 E14.04675
G1 X68.718 Y206.250 E20.22520
G1 X68.456 Y206.215 E20.23525
G1 X68.223 Y206.119 E20.24483
G1 X68.078 Y206.015 E20.25160
G1 X67.912 Y205.826 E20.26118
G1 X67.801 Y205.600 E20.27076
G1 X67.750 Y205.290 E20.28269
G1 X67.750 Y176.718 E21.36860
G1 X67.785 Y176.456 E21.37865
G1 X67.881 Y176.223 E21.38823
G1 X68.069 Y175.992 E21.39953
G1 X68.285 Y175.848 E21.40943
G1 X68.570 Y175.760 E21.42074
G1 X74.315 Y175.750 E21.63909
G1 X74.670 Y175.703 E21.65272
G1 X74.937 Y175.603 E21.66355
G1 X75.105 Y175.506 E21.67092
G1 X75.259 Y175.388 E21.67830
G1 X75.451 Y175.183 E21.68897
G1 X75.599 Y174.944 E21.69964
G1 X75.675 Y174.761 E21.70717
G1 X75.738 Y174.492 E21.71768
G1 X75.747 Y124.599 E23.61395
G1 X75.676 Y124.238 E23.62790
G1 X75.558 Y123.979 E23.63872
G1 X75.450 Y123.818 E23.64610
G1 X75.322 Y123.672 E23.65348
G1 X75.105 Y123.494 E23.66415
G1 X74.858 Y123.361 E23.67481
G1 X74.666 Y123.296 E23.68250
G1 X74.315 Y123.250 E23.69598
G1 X68.578 Y123.240 E23.91401
G1 X68.334 Y123.174 E23.92360
G1 X68.081 Y123.018 E23.93491
G1 X67.907 Y122.820 E23.94496
G1 X67.785 Y122.548 E23.95626
G1 X67.750 Y122.282 E23.96647
G1 X67.750 Y94.718 E25.01407
G1 X67.785 Y94.456 E25.02412
G1 X67.880 Y94.224 E25.03366
G1 X67.985 Y94.078 E25.04047
G1 X68.124 Y93.956 E25.04751
G1 E22.04751 F1800.00000
G92 E0
G1 Z1.700 F9000.000
G1 X68.279 Y94.434 F9000.000
G1 Z0.200 F9000.000
G1 E3.00000 F1800.00000
G1 F965.25
G1 X68.479 Y94.247 E3.01042
G1 X68.626 Y94.181 E3.01658
G1 X68.797 Y94.159 E3.02312
G1 X69.202 Y94.159 E3.03856
G1 X68.159 Y95.202 E3.09475
G1 X68.159 Y95.850 E3.11941
G1 X69.850 Y94.159 E3.21047
G1 X70.497 Y94.159 E3.23513
G1 X68.159 Y96.497 E3.36106
G1 X68.159 Y97.145 E3.38571
G1 X71.145 Y94.159 E3.54651
G1 X71.792 Y94.159 E3.57117
G1 X68.159 Y97.792 E3.76684
G1 X68.159 Y98.440 E3.79150
G1 X72.440 Y94.159 E4.02204
G1 X73.088 Y94.159 E4.04669
G1 X68.159 Y99.088 E4.31210
G1 X68.159 Y99.735 E4.33676
G1 X73.735 Y94.159 E4.63703
G1 X74.383 Y94.159 E4.66169
G1 X68.159 Y100.383 E4.99684
G1 X68.159 Y101.030 E5.02149
G1 X75.030 Y94.159 E5.39151
G1 X75.678 Y94.159 E5.41616
G1 X68.159 Y101.678 E5.82105
G1 X68.159 Y102.326 E5.84571
G1 X76.325 Y94.159 E6.28546
G1 X76.973 Y94.159 E6.31012
G1 X68.159 Y102.973 E6.78474
G1 X68.159 Y103.621 E6.80940
G1 X77.621 Y94.159 E7.31889
G1 X78.268 Y94.159 E7.34355
G1 X68.159 Y104.268 E7.88791
G1 X68.159 Y104.916 E7.91257
G1 X78.916 Y94.159 E8.49180
G1 X79.563 Y94.159 E8.51646
G1 X68.159 Y105.563 E9.13056
G1 X68.159 Y106.211 E9.15521
G1 X80.211 Y94.159 E9.80418
G1 X80.858 Y94.159 E9.82884
G1 X68.159 Y106.859 E10.51268
G1 X68.159 Y107.506 E10.53734
G1 X81.506 Y94.159 E11.25605
G1 X82.154 Y94.159 E11.28070
G1 X68.159 Y108.154 E12.03428
G1 X68.159 Y108.801 E12.05894
G1 X82.801 Y94.159 E12.84739
G1 X83.449 Y94.159 E12.87204
G1 X68.159 Y109.449 E13.69536
G1 X68.159 Y110.096 E13.72002
G1 X84.096 Y94.159 E14.57820
G1 X84.744 Y94.159 E14.60286
G1 X68.159 Y110.744 E15.49592
G1 X68.159 Y111.392 E15.52057
G1 X85.391 Y94.159 E16.44850
G1 X86.039 Y94.159 E16.47315
G1 X68.159 Y112.039 E17.43595
G1 X68.159 Y112.687 E17.46061
G1 X86.687 Y94.159 E18.45827
G1 X87.334 Y94.159 E18.48293
G1 X68.159 Y113.334 E19.51546
G1 X68.159 Y113.982 E19.54012
G1 X87.982 Y94.159 E20.60752
G1 X88.629 Y94.159 E20.63217
G1 X68.159 Y114.630 E21.73445
G1 X68.159 Y115.277 E21.75910
G1 X89.277 Y94.159 E22.89624
G1 X89.924 Y94.159 E22.92090
G1 X68.159 Y115.925 E24.09291
G1 X68.159 Y116.572 E24.11757
G1 X90.572 Y94.159 E25.32445
G1 X91.220 Y94.159 E25.34911
G1 X68.159 Y117.220 E26.59085
G1 X68.159 Y117.867 E26.61551
G1 X91.867 Y94.159 E27.89213
G1 X92.515 Y94.159 E27.91679
G1 X68.159 Y118.515 E29.22827
G1 X68.159 Y119.163 E29.25293
G1 X93.162 Y94.159 E30.59929
G1 X93.810 Y94.159 E30.62394
G1 X68.159 Y119.810 E32.00517
G1 X68.159 Y120.458 E32.02983
G1 X94.457 Y94.159 E33.44592
G1 X95.105 Y94.159 E33.47058
G1 X68.159 Y121.105 E34.92155
G1 X68.159 Y121.753 E34.94620
G1 X95.752 Y94.159 E36.43204
G1 X96.400 Y94.159 E36.45669
G1 X68.170 Y122.389 E37.97677
G1 X68.181 Y122.471 E37.97991
G1 X68.247 Y122.618 E37.98608
G1 X68.331 Y122.714 E37.99091
G1 X68.431 Y122.776 E37.99539
G1 X97.048 Y94.159 E39.53629
G1 X97.695 Y94.159 E39.56095
G1 X69.022 Y122.832 E41.10489
G1 X69.669 Y122.833 E41.12950
G1 X98.343 Y94.159 E42.67351
G1 X98.990 Y94.159 E42.69816
G1 X70.315 Y122.834 E44.24223
G1 X70.961 Y122.836 E44.26684
G1 X99.638 Y94.159 E45.81097
G1 X100.285 Y94.159 E45.83563
G1 X71.608 Y122.837 E47.37982
G1 X72.254 Y122.838 E47.40443
G1 X100.933 Y94.159 E48.94868
G1 X101.581 Y94.159 E48.97334
G1 X72.901 Y122.839 E50.51765
G1 X73.547 Y122.840 E50.54226
G1 X102.228 Y94.159 E52.08664
G1 X102.876 Y94.159 E52.11130
G1 X74.194 Y122.841 E53.65573
G1 X74.297 Y122.842 E53.65966
G1 X74.769 Y122.913 E53.67785
G1 X103.523 Y94.159 E55.22617
G1 X104.171 Y94.159 E55.25082
G1 X75.219 Y123.111 E56.80976
G1 X75.312 Y123.160 E56.81377
G1 X75.590 Y123.388 E56.82744
G1 X104.818 Y94.159 E58.40131
G1 X105.466 Y94.159 E58.42596
G1 X75.874 Y123.751 E60.01936
G1 X76.075 Y124.197 E60.03801
G1 X106.114 Y94.159 E61.65546
G1 X106.761 Y94.159 E61.68011
G1 X76.156 Y124.764 E63.32809
G1 X76.156 Y125.412 E63.35275
G1 X107.409 Y94.159 E65.03560
G1 X108.056 Y94.159 E65.06025
G1 X76.156 Y126.059 E66.77797
G1 X76.156 Y126.707 E66.80262
G1 X108.704 Y94.159 E68.55521
G1 X109.351 Y94.159 E68.57986
G1 X76.156 Y127.355 E70.36731
G1 X76.156 Y128.002 E70.39197
G1 X109.999 Y94.159 E72.21429
G1 X110.647 Y94.159 E72.23894
G1 X76.156 Y128.650 E74.09613
G1 X76.156 Y129.297 E74.12078
G1 X111.294 Y94.159 E76.01284
G1 X111.942 Y94.159 E76.03749
G1 X76.156 Y129.945 E77.96441
G1 X76.156 Y130.592 E77.98907
G1 X112.589 Y94.159 E79.95086
G1 X113.237 Y94.159 E79.97551
G1 X76.156 Y131.240 E81.97217
G1 X76.156 Y131.887 E81.99682
G1 X113.884 Y94.159 E84.02835
G1 X114.532 Y94.159 E84.05300
G1 X76.156 Y132.535 E86.11939
G1 X76.156 Y133.182 E86.14405
G1 X115.180 Y94.159 E88.24531
G1 X115.827 Y94.159 E88.26996
G1 X76.156 Y133.830 E90.40609
G1 X76.157 Y134.478 E90.43075
G1 X116.475 Y94.159 E92.60174
G1 X117.122 Y94.159 E92.62639
G1 X76.157 Y135.125 E94.83226
G1 X76.157 Y135.773 E94.85691
G1 X117.770 Y94.159 E97.09764
G1 X118.417 Y94.159 E97.12230
G1 X76.157 Y136.420 E99.39789
G1 X76.157 Y137.068 E99.42255
G1 X119.065 Y94.159 E101.73301
G1 X119.713 Y94.159 E101.75767
G1 X76.157 Y137.715 E104.10300
G1 X76.157 Y138.363 E104.12765
G1 X120.360 Y94.159 E106.50785
G1 X121.008 Y94.159 E106.53251
G1 X76.157 Y139.010 E108.94757
G1 X76.157 Y139.658 E108.97223
G1 X121.655 Y94.159 E111.42216
G1 X122.303 Y94.159 E111.44682
G1 X76.157 Y140.305 E113.93162
G1 X76.157 Y140.953 E113.95628
G1 X122.950 Y94.159 E116.47594
G1 X123.598 Y94.159 E116.50060
G1 X76.157 Y141.601 E119.05514
G1 X76.157 Y142.248 E119.07979
G1 X124.246 Y94.159 E121.66920
G1 X124.893 Y94.159 E121.69385
G1 X76.157 Y142.896 E124.31812
G1 X76.157 Y143.543 E124.34278
G1 X125.541 Y94.159 E127.00192
G1 X126.188 Y94.159 E127.02657
G1 X76.157 Y144.191 E129.72058
G1 X76.157 Y144.838 E129.74523
G1 X126.836 Y94.159 E132.47411
G1 X127.483 Y94.159 E132.49877
G1 X76.157 Y145.486 E135.26251
G1 X76.157 Y146.133 E135.28716
G1 X128.131 Y94.160 E138.08577
G1 X128.779 Y94.160 E138.11043
G1 X76.157 Y146.781 E140.94390
G1 X76.157 Y147.428 E140.96856
G1 X129.426 Y94.160 E143.83690
G1 X130.074 Y94.160 E143.86156
G1 X76.157 Y148.076 E146.76477
G1 X76.157 Y148.724 E146.78943
G1 X130.721 Y94.160 E149.72751
G1 X131.369 Y94.160 E149.75216
G1 X76.157 Y149.371 E152.72511
G1 X76.157 Y150.019 E152.74976
G1 X132.016 Y94.160 E155.75758
G1 X132.664 Y94.160 E155.78223
G1 X76.157 Y150.666 E158.82492
G1 X76.157 Y151.314 E158.84957
G1 X133.312 Y94.160 E161.92712
G1 X133.959 Y94.160 E161.95178
G1 X76.157 Y151.961 E165.06419
G1 X76.157 Y152.609 E165.08885
G1 X134.607 Y94.160 E168.23613
G1 X135.254 Y94.160 E168.26079
G1 X76.157 Y153.256 E171.44294
G1 X76.158 Y153.904 E171.46760
G1 X135.902 Y94.160 E174.68462
G1 X136.549 Y94.160 E174.70927
G1 X76.158 Y154.551 E177.96116
G1 X76.158 Y155.199 E177.98581
G1 X137.197 Y94.160 E181.27257
G1 X137.845 Y94.160 E181.29722
G1 X76.158 Y155.847 E184.61885
G1 X76.158 Y156.494 E184.64350
G1 X138.492 Y94.160 E187.99999
G1 X139.140 Y94.160 E188.02465
G1 X76.158 Y157.142 E191.41600
G1 X76.158 Y157.789 E191.44066
G1 X139.787 Y94.160 E194.86688
G1 X140.435 Y94.160 E194.89154
G1 X76.158 Y158.437 E198.35263
G1 X76.158 Y159.084 E198.37729
G1 X141.082 Y94.160 E201.87325
G1 X141.730 Y94.160 E201.89790
G1 X76.158 Y159.732 E205.42873
G1 X76.158 Y160.379 E205.45339
G1 X142.378 Y94.160 E209.01908
G1 X143.025 Y94.160 E209.04374
G1 X76.158 Y161.027 E212.64430
G1 X76.158 Y161.674 E212.66895
G1 X143.673 Y94.160 E216.30438
G1 X144.320 Y94.160 E216.32904
G1 X76.158 Y162.322 E219.99934
G1 X76.158 Y162.970 E220.02399
G1 X144.968 Y94.160 E223.72916
G1 X145.615 Y94.160 E223.75381
G1 X76.158 Y163.617 E227.49385
G1 X76.158 Y164.265 E227.51850
G1 X146.263 Y94.160 E231.29340
G1 X146.911 Y94.160 E231.31806
G1 X76.158 Y164.912 E235.12783
G1 X76.158 Y165.560 E235.15248
G1 X147.558 Y94.160 E238.99712
G1 X148.206 Y94.160 E239.02177
G1 X76.158 Y166.207 E242.90127
G1 X76.158 Y166.855 E242.92593
G1 X148.853 Y94.160 E246.84030
G1 X149.501 Y94.160 E246.86496
G1 X76.158 Y167.502 E250.81419
G1 X76.158 Y168.150 E250.83885
G1 X150.148 Y94.160 E254.82295
G1 X150.796 Y94.160 E254.84761
G1 X76.158 Y168.797 E258.86658
G1 X76.158 Y169.445 E258.89124
G1 X151.443 Y94.160 E262.94508
G1 X152.091 Y94.160 E262.96973
G1 X76.158 Y170.093 E267.05844
G1 X76.158 Y170.740 E267.08310
G1 X152.739 Y94.160 E271.20667
G1 X153.386 Y94.160 E271.23133
G1 X76.158 Y171.388 E275.38977
G1 X76.158 Y172.035 E275.41443
G1 X154.034 Y94.160 E279.60774
G1 X154.681 Y94.160 E279.63239
G1 X76.158 Y172.683 E283.86057
G1 X76.159 Y173.330 E283.88523
G1 X155.329 Y94.160 E288.14827
G1 X155.976 Y94.160 E288.17293
G1 X76.159 Y173.978 E292.47084
G1 X76.159 Y174.370 E292.48577
G1 X76.133 Y174.651 E292.49652
G1 X156.624 Y94.160 E296.83069
G1 X157.272 Y94.160 E296.85534
G1 X68.159 Y183.273 E301.65377
G1 X68.159 Y183.921 E301.67842
G1 X157.919 Y94.160 E306.51171
G1 X158.567 Y94.160 E306.53637
G1 X68.159 Y184.568 E311.40453
G1 X68.159 Y185.216 E311.42919
G1 X159.214 Y94.160 E316.33222
G1 X159.862 Y94.160 E316.35687
G1 X68.159 Y185.863 E321.29477
G1 X68.159 Y186.511 E321.31943
G1 X160.509 Y94.160 E326.29220
G1 X161.157 Y94.160 E326.31685
G1 X68.159 Y187.158 E331.32449
G1 X68.159 Y187.806 E331.34915
G1 X161.805 Y94.160 E336.39166
G1 X162.452 Y94.160 E336.41631
G1 X68.159 Y188.454 E341.49369
G1 X68.159 Y189.101 E341.51835
G1 X163.100 Y94.160 E346.63059
G1 X163.747 Y94.160 E346.65525
G1 X68.159 Y189.749 E351.80236
G1 X68.159 Y190.396 E351.82702
G1 X164.395 Y94.160 E357.00901
G1 X165.042 Y94.160 E357.03366
G1 X68.159 Y191.044 E362.25052
G1 X68.159 Y191.691 E362.27517
G1 X165.690 Y94.160 E367.52690
G1 X166.338 Y94.160 E367.55155
G1 X68.159 Y192.339 E372.83815
G1 X68.159 Y192.987 E372.86280
G1 X166.985 Y94.160 E378.18427
G1 X167.633 Y94.160 E378.20892
G1 X68.159 Y193.634 E383.56525
G1 X68.159 Y194.282 E383.58991
G1 X168.280 Y94.160 E388.98111
G1 X168.928 Y94.160 E389.00577
G1 X68.159 Y194.929 E394.43184
G1 X68.159 Y195.577 E394.45649
G1 X169.575 Y94.160 E399.91743
G1 X170.223 Y94.160 E399.94209
G1 X68.159 Y196.225 E405.43790
G1 X68.159 Y196.872 E405.46256
G1 X170.871 Y94.160 E410.99323
G1 X171.518 Y94.160 E411.01789
G1 X68.159 Y197.520 E416.58344
G1 X68.159 Y198.167 E416.60809
G1 X172.166 Y94.160 E422.20851
G1 X172.813 Y94.160 E422.23317
G1 X68.159 Y198.815 E427.86845
G1 X68.159 Y199.462 E427.89311
G1 X173.461 Y94.160 E433.56327
G1 X174.108 Y94.160 E433.58792
G1 X68.159 Y200.110 E439.29295
G1 X68.159 Y200.758 E439.31760
G1 X174.756 Y94.160 E445.05750
G1 X175.404 Y94.160 E445.08216
G1 X68.159 Y201.405 E450.85692
G1 X68.159 Y202.053 E450.88158
G1 X176.051 Y94.160 E456.69121
G1 X176.699 Y94.160 E456.71586
G1 X68.159 Y202.700 E462.56037
G1 X68.159 Y203.348 E462.58502
G1 X177.346 Y94.160 E468.46440
G1 X177.994 Y94.160 E468.48905
G1 X68.159 Y203.996 E474.40329
G1 X68.159 Y204.643 E474.42795
G1 X178.641 Y94.160 E480.37706
G1 X179.289 Y94.160 E480.40172
G1 X68.159 Y205.291 E486.38570
G1 X68.192 Y205.507 E486.39404
G1 X68.247 Y205.618 E486.39875
G1 X68.359 Y205.738 E486.40499
G1 X179.937 Y94.160 E492.41303
G1 X180.584 Y94.160 E492.43769
G1 X68.903 Y205.841 E498.45132
G1 X69.551 Y205.841 E498.47598
G1 X181.232 Y94.160 E504.48961
G1 X181.879 Y94.160 E504.51427
G1 X70.198 Y205.841 E510.52790
G1 X70.846 Y205.841 E510.55256
G1 X182.527 Y94.160 E516.56619
G1 X183.174 Y94.160 E516.59085
G1 X71.493 Y205.841 E522.60448
G1 X72.141 Y205.841 E522.62914
G1 X183.822 Y94.160 E528.64277
G1 X184.470 Y94.160 E528.66743
G1 X72.788 Y205.841 E534.68106
G1 X73.436 Y205.841 E534.70571
G1 X185.117 Y94.160 E540.71935
G1 X185.765 Y94.160 E540.74400
G1 X74.084 Y205.841 E546.75763
G1 X74.731 Y205.841 E546.78229
G1 X186.412 Y94.160 E552.79592
G1 X187.060 Y94.160 E552.82058
G1 X75.379 Y205.841 E558.83420
G1 X76.026 Y205.841 E558.85886
G1 X187.707 Y94.160 E564.87249
